flask-outline.svg

<svg fill="currentColor" viewBox="0 0 24 24"><path d="M5 19a1 1 0 0 0 1 1h12a1 1 0 0 0 1-1c0-.21-.07-.41-.18-.57L13 8.35V4h-2v4.35L5.18 18.43c-.11.16-.18.36-.18.57m1 3a3 3 0 0 1-3-3c0-.6.18-1.16.5-1.63L9 7.81V6a1 1 0 0 1-1-1V4a2 2 0 0 1 2-2h4a2 2 0 0 1 2 2v1a1 1 0 0 1-1 1v1.81l5.5 9.56c.32.47.5 1.03.5 1.63a3 3 0 0 1-3 3zm7-6 1.34-1.34L16.27 18H7.73l2.66-4.61zm-.5-4a.5.5 0 0 1 .5.5.5.5 0 0 1-.5.5.5.5 0 0 1-.5-.5.5.5 0 0 1 .5-.5"/></svg>

<svg  viewBox="0 0 24 24" fill="currentColor"><path  d="M5,19A1,1 0 0,0 6,20H18A1,1 0 0,0 19,19C19,18.79 18.93,18.59 18.82,18.43L13,8.35V4H11V8.35L5.18,18.43C5.07,18.59 5,18.79 5,19M6,22A3,3 0 0,1 3,19C3,18.4 3.18,17.84 3.5,17.37L9,7.81V6A1,1 0 0,1 8,5V4A2,2 0 0,1 10,2H14A2,2 0 0,1 16,4V5A1,1 0 0,1 15,6V7.81L20.5,17.37C20.82,17.84 21,18.4 21,19A3,3 0 0,1 18,22H6M13,16L14.34,14.66L16.27,18H7.73L10.39,13.39L13,16M12.5,12A0.5,0.5 0 0,1 13,12.5A0.5,0.5 0 0,1 12.5,13A0.5,0.5 0 0,1 12,12.5A0.5,0.5 0 0,1 12.5,12Z"/></svg>
